svg/core/icon/Fairchild_MBR745_icon.svg

<?xml version="1.0" encoding="UTF-8"?>
<svg width="38px" height="73px" version="1.1" viewBox="0 0 38 73" xmlns="http://www.w3.org/2000/svg">
	<desc>
		<referenceFile>MBR745_Schottky_breadboard.svg</referenceFile>
	</desc>
	<title>MBR745_Schottky_breadboard</title>
	<description>Created with Sketch (http://www.bohemiancoding.com/sketch)</description>
	<g fill="none" fill-rule="evenodd" id="icon">
		<g transform="translate(1)">
			<g id="breadboard" type="MSLayerGroup">
				<rect id="connector0pin" x="7" y="60" width="3" height="1" type="MSShapeGroup"/>
				<rect id="connector1pin" x="16" y="60" width="3" height="1" type="MSShapeGroup"/>
				<rect id="connector2pin" x="26" y="60" width="3" height="1" type="MSShapeGroup"/>
				<path id="connector0leg" d="m8.001 62.317v10" stroke="#8C8C8C" stroke-width="3" type="MSShapeGroup"/>
				<path id="connector2leg" d="m27.997 62.317v10" stroke="#8C8C8C" stroke-width="3" type="MSShapeGroup"/>
				<path id="Shape" d="m32.997 0.5h-14.998v2.502c4.354 0 7.875 2.47 7.875 5.516-2e-3 3.044-3.523 5.513-7.875 5.513v8.087h14.998v-21.618z" fill="#BFBCBC" type="MSShapeGroup"/>
				<path id="Shape" d="m10.126 8.514c0-3.047 3.523-5.514 7.873-5.514v-2.501h-14.998v21.611h14.998v-8.086c-4.35 2e-3 -7.873-2.465-7.873-5.51z" fill="#808080" type="MSShapeGroup"/>
				<rect x="7" y="47" width="3" height="15.787" fill="#8C8C8C" type="MSShapeGroup"/>
				<rect x="26" y="47" width="3" height="15.787" fill="#8C8C8C" type="MSShapeGroup"/>
				<path d="m-0.499 4.525v13.34h3.5v-17.365l-3.5 4.025z" fill="#ccc" type="MSShapeGroup"/>
				<path d="m36.497 4.525-3.5-4.025v17.365h3.5v-13.34z" fill="#999" type="MSShapeGroup"/>
				<path d="m11.501 56.675-2.24 1h-2.52l-2.24-1v-12.18h7v12.18z" fill="#8C8C8C" type="MSShapeGroup"/>
				<path d="m31.497 56.675-2.24 1h-2.518l-2.24-1v-12.18h6.998v12.18z" fill="#8C8C8C" type="MSShapeGroup"/>
				<rect id="Rectangle" x="24" y="32" width="12" height="22.222" fill="#141414" type="MSShapeGroup"/>
				<rect y="32" width="12" height="22.222" fill="#333" type="MSShapeGroup"/>
				<path d="m-0.499 39.659v7.176c2.83 0 5.125-1.604 5.125-3.588 0-1.981-2.295-3.588-5.125-3.588z" fill="#262626" type="MSShapeGroup"/>
				<path d="m36.497 39.659c-2.83 0-5.125 1.604-5.125 3.588 0 1.979 2.295 3.588 5.125 3.588v-7.176z" fill="#000" type="MSShapeGroup"/>
				<path d="m-0.499 31.522v9.888c2.83 0 5.125 1.606 5.125 3.588s-2.295 3.588-5.125 3.588v5.158h36.998v-22.222h-36.998zm36.996 17.063c-2.83 0-5.125-1.604-5.125-3.588 0-1.979 2.295-3.588 5.125-3.588v7.176z" fill="#1A1A1A" type="MSShapeGroup"/>
				<rect y="27" width="36.998" height="4.649" fill="#000" type="MSShapeGroup"/>
				<rect y="21" width="36.998" height="5.748" fill="#333" type="MSShapeGroup"/>
				<rect x="3" y="1" width="29.998" height="4.25" fill="#B2B2B2" type="MSShapeGroup"/>
				<path d="m32.997 3.759h-29.996l-3.5 4.024v13.34h36.996v-13.34l-3.5-4.024zm-14.998 13.527c-4.35 0-7.873-2.468-7.873-5.513 0-3.044 3.523-5.511 7.873-5.511 4.354 0 7.875 2.468 7.875 5.511-2e-3 3.044-3.523 5.513-7.875 5.513z" fill="#8C8C8C" type="MSShapeGroup"/>
				<g transform="translate(5 25)">
					<g fill="#fff" font-family="Droid Sans" font-size="12" font-style="italic" type="MSTextLayer">
						<text y="11">MBR</text>
						<text y="25">745</text>
					</g>
				</g>
			</g>
		</g>
	</g>
</svg>

<?xml version='1.0' encoding='UTF-8' standalone='no'?>
<svg xmlns="http://www.w3.org/2000/svg" viewBox="0 0 38 73" width="38px"  height="73px" version="1.1">
    <desc >
        <referenceFile >MBR745_Schottky_breadboard.svg</referenceFile>
    </desc>
    <title >MBR745_Schottky_breadboard</title>
    <description >Created with Sketch (http://www.bohemiancoding.com/sketch)</description>
    <defs />
    <g gorn="0.4" id="Page-1" stroke-width="1" stroke="none"  fill="none" fill-rule="evenodd" type="MSPage">
        <g  transform="translate(1.000000, 0.000000)">
            <g >
                <g >
                    <g >
                        <g >
                            <g >
                                <g gorn="0.4.0.0.0.0.0.0.0" id="breadboard"  type="MSLayerGroup">
                                    <rect width="3" gorn="0.4.0.0.0.0.0.0.0.0" id="connector0pin"  height="1" type="MSShapeGroup" x="7" y="60"/>
                                    <rect width="3" gorn="0.4.0.0.0.0.0.0.0.1" id="connector1pin"  height="1" type="MSShapeGroup" x="16" y="60"/>
                                    <rect width="3" gorn="0.4.0.0.0.0.0.0.0.2" id="connector2pin"  height="1" type="MSShapeGroup" x="26" y="60"/>
                                    <path gorn="0.4.0.0.0.0.0.0.0.3" id="connector0leg" stroke-width="3" stroke="#8C8C8C"  type="MSShapeGroup" d="M8.001,62.317 L8.001,72.317"/>
                                    <path gorn="0.4.0.0.0.0.0.0.0.4" id="connector2leg" stroke-width="3" stroke="#8C8C8C"  type="MSShapeGroup" d="M27.997,62.317 L27.997,72.317"/>
                                    <path gorn="0.4.0.0.0.0.0.0.0.5" id="Shape"  fill="#BFBCBC" type="MSShapeGroup" d="M32.997,0.5 L17.999,0.5 L17.999,3.002 C22.353,3.002 25.874,5.472 25.874,8.518 C25.872,11.562 22.351,14.031 17.999,14.031 L17.999,22.118 L32.997,22.118 L32.997,0.5 L32.997,0.5 Z"/>
                                    <path gorn="0.4.0.0.0.0.0.0.0.6" id="Shape"  fill="#808080" type="MSShapeGroup" d="M10.126,8.514 C10.126,5.467 13.649,3 17.999,3 L17.999,0.499 L3.001,0.499 L3.001,22.11 L17.999,22.11 L17.999,14.024 C13.649,14.026 10.126,11.559 10.126,8.514 L10.126,8.514 Z"/>
                                    <rect width="3" gorn="0.4.0.0.0.0.0.0.0.7" id="rect4"  fill="#8C8C8C" height="15.787" type="MSShapeGroup" x="7" y="47"/>
                                    <rect width="3" gorn="0.4.0.0.0.0.0.0.0.8" id="rect8"  fill="#8C8C8C" height="15.787" type="MSShapeGroup" x="26" y="47"/>
                                    <path gorn="0.4.0.0.0.0.0.0.0.9" id="polygon10"  fill="#CCCCCC" type="MSShapeGroup" d="M-0.499,4.525 L-0.499,17.865 L3.001,17.865 L3.001,0.5 L-0.499,4.525 Z"/>
                                    <path gorn="0.4.0.0.0.0.0.0.0.10" id="polygon12"  fill="#999999" type="MSShapeGroup" d="M36.497,4.525 L32.997,0.5 L32.997,17.865 L36.497,17.865 L36.497,4.525 Z"/>
                                    <path gorn="0.4.0.0.0.0.0.0.0.11" id="polygon21"  fill="#8C8C8C" type="MSShapeGroup" d="M11.501,56.675 L9.261,57.675 L6.741,57.675 L4.501,56.675 L4.501,44.495 L11.501,44.495 L11.501,56.675 Z"/>
                                    <path gorn="0.4.0.0.0.0.0.0.0.12" id="polygon25"  fill="#8C8C8C" type="MSShapeGroup" d="M31.497,56.675 L29.257,57.675 L26.739,57.675 L24.499,56.675 L24.499,44.495 L31.497,44.495 L31.497,56.675 Z"/>
                                    <rect width="12" gorn="0.4.0.0.0.0.0.0.0.13" id="Rectangle"  fill="#141414" height="22.222" type="MSShapeGroup" x="24" y="32"/>
                                    <rect width="12" gorn="0.4.0.0.0.0.0.0.0.14" id="Rectangle"  fill="#333333" height="22.222" type="MSShapeGroup" x="0" y="32"/>
                                    <path gorn="0.4.0.0.0.0.0.0.0.15" id="path40_1_"  fill="#262626" type="MSShapeGroup" d="M-0.499,39.659 L-0.499,46.835 C2.331,46.835 4.626,45.231 4.626,43.247 C4.626,41.266 2.331,39.659 -0.499,39.659 L-0.499,39.659 Z"/>
                                    <path gorn="0.4.0.0.0.0.0.0.0.16" id="path47"  fill="#000000" type="MSShapeGroup" d="M36.497,39.659 C33.667,39.659 31.372,41.263 31.372,43.247 C31.372,45.226 33.667,46.835 36.497,46.835 L36.497,39.659 L36.497,39.659 Z"/>
                                    <path gorn="0.4.0.0.0.0.0.0.0.17" id="Shape"  fill="#1A1A1A" type="MSShapeGroup" d="M-0.499,31.522 L-0.499,41.41 C2.331,41.41 4.626,43.016 4.626,44.998 C4.626,46.98 2.331,48.586 -0.499,48.586 L-0.499,53.744 L36.499,53.744 L36.499,31.522 L-0.499,31.522 L-0.499,31.522 Z M36.497,48.585 C33.667,48.585 31.372,46.981 31.372,44.997 C31.372,43.018 33.667,41.409 36.497,41.409 L36.497,48.585 L36.497,48.585 Z"/>
                                    <rect width="36.998" gorn="0.4.0.0.0.0.0.0.0.18" id="rect49"  fill="#000000" height="4.649" type="MSShapeGroup" x="0" y="27"/>
                                    <rect width="36.998" gorn="0.4.0.0.0.0.0.0.0.19" id="rect51"  fill="#333333" height="5.748" type="MSShapeGroup" x="0" y="21"/>
                                    <rect width="29.998" gorn="0.4.0.0.0.0.0.0.0.20" id="rect53"  fill="#B2B2B2" height="4.25" type="MSShapeGroup" x="3" y="1"/>
                                    <path gorn="0.4.0.0.0.0.0.0.0.21" id="path55"  fill="#8C8C8C" type="MSShapeGroup" d="M32.997,3.759 L3.001,3.759 L-0.499,7.783 L-0.499,21.123 L36.497,21.123 L36.497,7.783 L32.997,3.759 L32.997,3.759 Z M17.999,17.286 C13.649,17.286 10.126,14.818 10.126,11.773 C10.126,8.729 13.649,6.262 17.999,6.262 C22.353,6.262 25.874,8.73 25.874,11.773 C25.872,14.817 22.351,17.286 17.999,17.286 L17.999,17.286 Z"/>
                                    <g  transform="translate(5.000000, 25.000000)">
                                        <g >
                                            <g >
                                                <g >
                                                    <g >
                                                        <g >
                                                            <g gorn="0.4.0.0.0.0.0.0.0.22.0.0.0.0.0.0" id="Group" font-size="12"  fill="#FFFFFF" font-style="italic" font-weight="normal" type="MSTextLayer" font-family="Droid Sans">
                                                                <g gorn="0.4.0.0.0.0.0.0.0.22.0.0.0.0.0.0.0" id="MBR" >
                                                                    <text  x="0" y="11">MBR</text>
                                                                    <text  x="0" y="25">745</text>
                                                                </g>
                                                            </g>
                                                        </g>
                                                    </g>
                                                </g>
                                            </g>
                                        </g>
                                    </g>
                                </g>
                            </g>
                        </g>
                    </g>
                </g>
            </g>
        </g>
    </g>
</svg>
